icons/1_Primary/Xing.svg

<svg xmlns="http://www.w3.org/2000/svg" width="1024" height="1024" fill="none">
   <g clip-path="url(#a)">
      <path fill="#73ADA4" d="M512 1024c282.77 0 512-229.23 512-512S794.77 0 512 0 0 229.23 0 512s229.23 512 512 512Z"/>
      <path fill="#fff" d="M644 256c-11 0-15.81 6.93-19.78 14.08 0 0-159 282.11-164.31 291.35.32.51 104.94 192.49 104.94 192.49 3.63 6.57 9.3 14.08 20.63 14.08h73.69c4.5 0 8-1.66 9.88-4.69 1.9-3.22 1.9-7.38-.19-11.43L564.78 561.66a.462.462 0 0 1 0-.47L728.3 272.13c2-4.07 2.07-8.26.13-11.41-1.94-3.15-5.35-4.71-9.79-4.71L644 256ZM333.83 357.12c-4.5 0-8.21 1.58-10.09 4.61-1.88 3.03-1.66 7.23.43 11.33l49.92 86.4c.09.21.09.34 0 .45l-78.4 138.52c-2.11 4-2 8.13 0 11.29 1.81 3 5.1 5 9.6 5h73.83c11.05 0 16.34-7.42 20.16-14.23l79.66-141-50.73-88.64c-3.67-6.72-9.26-14.06-20.52-14.06h-73.86v.33Z"/>
   </g>
   <defs>
      <clipPath id="a">
         <path fill="#fff" d="M0 0h1024v1024H0z"/>
      </clipPath>
   </defs>
</svg>

<svg width="1024" height="1024" viewBox="0 0 1024 1024" fill="none" xmlns="http://www.w3.org/2000/svg">
<g clip-path="url(#clip0_2_3987)">
<path d="M512 1024C794.77 1024 1024 794.77 1024 512C1024 229.23 794.77 0 512 0C229.23 0 0 229.23 0 512C0 794.77 229.23 1024 512 1024Z" fill="#73ADA4"/>
<path d="M644 256C633 256 628.19 262.93 624.22 270.08C624.22 270.08 465.22 552.19 459.91 561.43C460.23 561.94 564.85 753.92 564.85 753.92C568.48 760.49 574.15 768 585.48 768H659.17C663.67 768 667.17 766.34 669.05 763.31C670.95 760.09 670.95 755.93 668.86 751.88L564.78 561.66C564.738 561.589 564.715 561.508 564.715 561.425C564.715 561.342 564.738 561.261 564.78 561.19L728.3 272.13C730.3 268.06 730.37 263.87 728.43 260.72C726.49 257.57 723.08 256.01 718.64 256.01L644 256ZM333.83 357.12C329.33 357.12 325.62 358.7 323.74 361.73C321.86 364.76 322.08 368.96 324.17 373.06L374.09 459.46C374.18 459.67 374.18 459.8 374.09 459.91L295.69 598.43C293.58 602.43 293.69 606.56 295.69 609.72C297.5 612.72 300.79 614.72 305.29 614.72H379.12C390.17 614.72 395.46 607.3 399.28 600.49L478.94 459.49L428.21 370.85C424.54 364.13 418.95 356.79 407.69 356.79H333.83V357.12Z" fill="white"/>
</g>
<defs>
<clipPath id="clip0_2_3987">
<rect width="1024" height="1024" fill="white"/>
</clipPath>
</defs>
</svg>
